; generated by Slic3r 1.3.0 on 2019-10-23 at 22:59:07

; external perimeters extrusion width = 0.44mm (1.69mm^3/s)
; perimeters extrusion width = 0.48mm (4.40mm^3/s)
; infill extrusion width = 0.48mm (5.03mm^3/s)
; solid infill extrusion width = 0.48mm (2.51mm^3/s)
; top infill extrusion width = 0.48mm (1.88mm^3/s)

M107
M104 S220 ; set temperature
G28 ; home all axes
G1 Z5 F5000 ; lift nozzle

; Filament gcode

M109 S220 ; set temperature and wait for it to be reached
G21 ; set units to millimeters
G90 ; use absolute coordinates
M82 ; use absolute distances for extrusion
G92 E0
G1 Z0.400 F7800.000
G1 E-2.00000 F2400.00000
G92 E0
G1 X58.517 Y55.678 F7800.000
G1 E2.00000 F2400.00000
G1 F900
G1 X86.657 Y27.538 E5.82902
G1 X87.149 Y27.093 E5.89286
G1 X88.507 Y25.982 E6.06166
G1 X89.626 Y25.242 E6.19077
G1 X91.487 Y24.265 E6.39296
G1 X92.763 Y23.754 E6.52518
G1 X94.771 Y23.184 E6.72605
G1 X96.104 Y22.948 E6.85635
G1 X98.086 Y22.802 E7.04749
G1 X99.429 Y22.840 E7.17680
G1 X101.409 Y23.097 E7.36893
G1 X102.775 Y23.424 E7.50410
G1 X104.613 Y24.075 E7.69170
G1 X105.770 Y24.614 E7.81448
G1 X107.193 Y25.452 E7.97344
G1 X108.106 Y26.099 E8.08109
G1 X109.095 Y26.934 E8.20559
G1 X109.510 Y27.314 E8.25973
G1 X117.765 Y35.570 E9.38307
G1 X118.288 Y36.159 E9.45884
G1 X119.406 Y37.579 E9.63276
G1 X120.220 Y38.908 E9.78272
G1 X121.132 Y40.884 E9.99208
G1 X121.606 Y42.319 E10.13747
G1 X122.040 Y44.405 E10.34252
G1 X122.179 Y45.845 E10.48168
G1 X122.153 Y47.926 E10.68192
G1 X121.994 Y49.294 E10.81451
G1 X121.551 Y51.278 E11.01004
G1 X121.138 Y52.531 E11.13700
G1 X120.365 Y54.272 E11.32031
G1 X119.839 Y55.234 E11.42580
G1 X119.012 Y56.488 E11.57036
G1 X118.467 Y57.204 E11.65685
G1 X117.692 Y58.092 E11.77030
G1 X117.386 Y58.419 E11.81341
G1 X89.217 Y86.588 E15.64641
G1 X88.725 Y87.033 E15.71025
G1 X87.366 Y88.144 E15.87907
G1 X86.248 Y88.884 E16.00811
G1 X84.751 Y89.670 E16.17079
G1 X84.670 Y89.751 E16.18176
G1 X83.884 Y91.248 E16.34443
G1 X83.144 Y92.366 E16.47348
G1 X82.033 Y93.725 E16.64230
G1 X81.588 Y94.217 E16.70614
G1 X53.419 Y122.386 E20.53914
G1 X52.204 Y123.467 E20.69568
G1 X51.488 Y124.012 E20.78217
G1 X50.234 Y124.839 E20.92672
G1 X49.272 Y125.365 E21.03221
G1 X47.531 Y126.138 E21.21553
G1 X46.278 Y126.551 E21.34249
G1 X44.294 Y126.994 E21.53802
G1 X42.926 Y127.153 E21.67061
G1 X40.845 Y127.179 E21.87085
G1 X39.405 Y127.040 E22.01001
G1 X37.319 Y126.606 E22.21506
G1 X35.884 Y126.132 E22.36045
G1 X33.908 Y125.220 E22.56981
G1 X32.579 Y124.406 E22.71977
G1 X31.159 Y123.288 E22.89369
G1 X30.570 Y122.765 E22.96946
G1 X22.314 Y114.510 E24.09280
G1 X21.934 Y114.095 E24.14694
G1 X21.099 Y113.106 E24.27144
G1 X20.452 Y112.193 E24.37909
G1 X19.614 Y110.770 E24.53805
G1 X19.075 Y109.613 E24.66083
G1 X18.424 Y107.775 E24.84844
G1 X18.097 Y106.409 E24.98360
G1 X17.840 Y104.429 E25.17573
G1 X17.802 Y103.086 E25.30504
G1 X17.948 Y101.104 E25.49618
G1 X18.184 Y99.771 E25.62648
G1 X18.754 Y97.763 E25.82735
G1 X19.265 Y96.487 E25.95957
G1 X20.242 Y94.626 E26.16176
G1 X20.982 Y93.507 E26.29087
G1 X22.093 Y92.149 E26.45967
G1 X22.538 Y91.657 E26.52351
G1 X50.678 Y63.517 E30.35253
G1 X51.760 Y62.542 E30.49272
G1 X52.271 Y62.138 E30.55532
G1 X52.955 Y61.650 E30.63623
G1 X53.602 Y61.218 E30.71107
G1 X54.258 Y60.837 E30.78402
G1 X55.250 Y60.335 E30.89105
G1 X55.335 Y60.250 E30.90257
G1 X55.837 Y59.258 E31.00960
G1 X56.218 Y58.602 E31.08255
G1 X56.650 Y57.955 E31.15740
G1 X57.138 Y57.271 E31.23830
G1 X57.542 Y56.760 E31.30090
G1 X58.476 Y55.722 E31.43532
G1 X59.029 Y56.176 F7800.000
G1 F900
G1 X87.150 Y28.056 E35.26168
G1 X87.615 Y27.635 E35.32209
G1 X88.931 Y26.558 E35.48570
G1 X89.990 Y25.857 E35.60787
G1 X91.786 Y24.914 E35.80303
G1 X92.993 Y24.431 E35.92815
G1 X94.931 Y23.881 E36.12195
G1 X96.193 Y23.657 E36.24525
G1 X98.102 Y23.517 E36.42941
G1 X99.373 Y23.553 E36.55176
G1 X101.280 Y23.800 E36.73678
G1 X102.573 Y24.110 E36.86467
G1 X104.343 Y24.736 E37.04534
G1 X105.437 Y25.247 E37.16152
G1 X106.805 Y26.053 E37.31429
G1 X107.669 Y26.665 E37.41615
G1 X108.623 Y27.470 E37.53630
G1 X109.015 Y27.830 E37.58753
G1 X117.245 Y36.060 E38.70737
G1 X117.740 Y36.617 E38.77907
G1 X118.819 Y37.988 E38.94692
G1 X119.589 Y39.245 E39.08882
G1 X120.466 Y41.146 E39.29023
G1 X120.915 Y42.504 E39.42780
G1 X121.333 Y44.513 E39.62521
G1 X121.464 Y45.875 E39.75688
G1 X121.440 Y47.880 E39.94982
G1 X121.289 Y49.175 E40.07528
G1 X120.862 Y51.088 E40.26384
G1 X120.471 Y52.273 E40.38397
G1 X119.724 Y53.955 E40.56104
G1 X119.226 Y54.866 E40.66086
G1 X118.429 Y56.075 E40.80026
G1 X117.914 Y56.752 E40.88210
G1 X117.162 Y57.613 E40.99208
G1 X116.872 Y57.923 E41.03286
G1 X88.724 Y86.070 E44.86299
G1 X88.259 Y86.492 E44.92340
G1 X86.942 Y87.568 E45.08703
G1 X85.884 Y88.269 E45.20913
G1 X84.222 Y89.142 E45.38973
G1 X84.142 Y89.222 E45.40070
G1 X83.269 Y90.884 E45.58129
G1 X82.568 Y91.942 E45.70339
G1 X81.492 Y93.259 E45.86703
G1 X81.070 Y93.724 E45.92743
G1 X52.923 Y121.872 E49.75756
G1 X51.752 Y122.914 E49.90831
G1 X51.075 Y123.429 E49.99015
G1 X49.866 Y124.226 E50.12954
G1 X48.955 Y124.724 E50.22935
G1 X47.273 Y125.471 E50.40644
G1 X46.088 Y125.862 E50.52657
G1 X44.175 Y126.289 E50.71513
G1 X42.880 Y126.440 E50.84059
G1 X40.875 Y126.464 E51.03352
G1 X39.513 Y126.333 E51.16520
G1 X37.504 Y125.915 E51.36261
G1 X36.146 Y125.466 E51.50018
G1 X34.245 Y124.589 E51.70159
G1 X32.988 Y123.819 E51.84349
G1 X31.617 Y122.740 E52.01134
G1 X31.060 Y122.245 E52.08304
G1 X22.830 Y114.015 E53.20288
G1 X22.470 Y113.623 E53.25411
G1 X21.665 Y112.669 E53.37426
G1 X21.053 Y111.805 E53.47612
G1 X20.247 Y110.437 E53.62889
G1 X19.736 Y109.343 E53.74507
G1 X19.110 Y107.572 E53.92574
G1 X18.800 Y106.280 E54.05363
G1 X18.553 Y104.373 E54.23865
G1 X18.517 Y103.102 E54.36100
G1 X18.657 Y101.193 E54.54516
G1 X18.881 Y99.931 E54.66845
G1 X19.431 Y97.993 E54.86226
G1 X19.914 Y96.786 E54.98737
G1 X20.857 Y94.990 E55.18254
G1 X21.558 Y93.931 E55.30471
G1 X22.635 Y92.615 E55.46832
G1 X23.056 Y92.150 E55.52873
G1 X51.176 Y64.029 E59.35509
G1 X52.217 Y63.091 E59.48991
G1 X52.700 Y62.709 E59.54915
G1 X53.558 Y62.102 E59.65029
G1 X53.978 Y61.825 E59.69869
G1 X54.598 Y61.465 E59.76772
G1 X55.780 Y60.871 E59.89492
G1 X55.871 Y60.780 E59.90739
G1 X56.465 Y59.598 E60.03460
G1 X56.825 Y58.978 E60.10363
G1 X57.235 Y58.364 E60.17458
G1 X57.709 Y57.700 E60.25317
G1 X58.091 Y57.217 E60.31240
G1 X58.988 Y56.220 E60.44145
G1 X59.541 Y56.674 F7800.000
G1 F900
G1 X87.642 Y28.573 E64.26515
G1 X88.081 Y28.176 E64.32212
G1 X89.356 Y27.134 E64.48055
G1 X90.354 Y26.473 E64.59578
G1 X92.086 Y25.564 E64.78392
G1 X93.224 Y25.108 E64.90192
G1 X95.091 Y24.578 E65.08867
G1 X96.281 Y24.367 E65.20496
G1 X98.118 Y24.233 E65.38213
G1 X99.317 Y24.266 E65.49753
G1 X101.150 Y24.504 E65.67544
G1 X102.370 Y24.796 E65.79606
G1 X104.072 Y25.398 E65.96979
G1 X105.104 Y25.880 E66.07937
G1 X106.417 Y26.653 E66.22595
G1 X107.231 Y27.230 E66.32202
G1 X108.151 Y28.006 E66.43782
G1 X108.521 Y28.346 E66.48613
G1 X116.725 Y36.550 E67.60248
G1 X117.192 Y37.076 E67.67010
G1 X118.232 Y38.397 E67.83188
G1 X118.958 Y39.583 E67.96572
G1 X119.801 Y41.409 E68.15919
G1 X120.224 Y42.689 E68.28894
G1 X120.625 Y44.620 E68.47870
G1 X120.750 Y45.905 E68.60290
G1 X120.726 Y47.834 E68.78853
G1 X120.584 Y49.056 E68.90686
G1 X120.172 Y50.898 E69.08845
G1 X119.803 Y52.016 E69.20175
G1 X119.083 Y53.638 E69.37259
G1 X118.613 Y54.497 E69.46673
G1 X117.846 Y55.662 E69.60097
G1 X117.360 Y56.300 E69.67816
G1 X116.359 Y57.426 E69.82312
G1 X88.232 Y85.553 E73.65037
G1 X87.793 Y85.950 E73.70734
G1 X86.518 Y86.993 E73.86579
G1 X85.520 Y87.653 E73.98095
G1 X83.705 Y88.596 E74.17772
G1 X83.596 Y88.705 E74.19254
G1 X82.653 Y90.520 E74.38932
G1 X81.993 Y91.518 E74.50448
G1 X80.950 Y92.793 E74.66293
G1 X80.553 Y93.232 E74.71990
G1 X52.426 Y121.359 E78.54715
G1 X51.300 Y122.360 E78.69211
G1 X50.662 Y122.846 E78.76930
G1 X49.497 Y123.613 E78.90353
G1 X48.639 Y124.083 E78.99767
G1 X47.016 Y124.803 E79.16851
G1 X45.898 Y125.172 E79.28181
G1 X44.056 Y125.584 E79.46340
G1 X42.834 Y125.726 E79.58174
G1 X40.905 Y125.750 E79.76737
G1 X39.620 Y125.625 E79.89156
G1 X37.689 Y125.224 E80.08132
G1 X36.409 Y124.801 E80.21108
G1 X34.583 Y123.958 E80.40455
G1 X33.397 Y123.232 E80.53838
G1 X32.076 Y122.192 E80.70016
G1 X31.550 Y121.725 E80.76778
G1 X23.346 Y113.521 E81.88413
G1 X23.006 Y113.151 E81.93245
G1 X22.230 Y112.231 E82.04824
G1 X21.653 Y111.417 E82.14432
G1 X20.880 Y110.104 E82.29089
G1 X20.398 Y109.072 E82.40047
G1 X19.796 Y107.370 E82.57421
G1 X19.504 Y106.150 E82.69483
G1 X19.266 Y104.317 E82.87274
G1 X19.233 Y103.118 E82.98814
G1 X19.367 Y101.281 E83.16531
G1 X19.578 Y100.091 E83.28160
G1 X20.108 Y98.224 E83.46835
G1 X20.564 Y97.086 E83.58635
G1 X21.473 Y95.354 E83.77449
G1 X22.134 Y94.356 E83.88972
G1 X23.176 Y93.081 E84.04814
G1 X23.573 Y92.642 E84.10511
G1 X51.674 Y64.541 E87.92881
G1 X52.674 Y63.641 E88.05827
G1 X53.129 Y63.280 E88.11414
G1 X53.957 Y62.695 E88.21168
G1 X54.354 Y62.433 E88.25747
G1 X54.939 Y62.093 E88.32258
G1 X56.312 Y61.411 E88.47011
G1 X56.411 Y61.312 E88.48352
G1 X57.093 Y59.939 E88.63106
G1 X57.433 Y59.354 E88.69617
G1 X57.695 Y58.957 E88.74196
G1 X58.280 Y58.129 E88.83950
G1 X58.641 Y57.674 E88.89537
G1 X59.500 Y56.718 E89.01905
G1 X60.053 Y57.172 F7800.000
G1 F900
G1 X88.135 Y29.091 E92.84009
G1 X88.547 Y28.718 E92.89363
G1 X89.780 Y27.710 E93.04686
G1 X90.719 Y27.089 E93.15515
G1 X92.385 Y26.213 E93.33627
G1 X93.455 Y25.785 E93.44716
G1 X95.252 Y25.275 E93.62685
G1 X96.370 Y25.077 E93.73613
G1 X98.134 Y24.948 E93.90632
G1 X99.261 Y24.979 E94.01476
G1 X101.021 Y25.207 E94.18556
G1 X102.167 Y25.481 E94.29892
G1 X103.801 Y26.060 E94.46571
G1 X104.771 Y26.513 E94.56869
G1 X106.028 Y27.253 E94.70907
G1 X106.794 Y27.796 E94.79936
G1 X107.679 Y28.542 E94.91080
G1 X108.027 Y28.862 E94.95621
G1 X116.205 Y37.040 E96.06906
G1 X116.644 Y37.534 E96.13261
G1 X117.645 Y38.806 E96.28832
G1 X118.327 Y39.920 E96.41409
G1 X119.135 Y41.671 E96.59962
G1 X119.533 Y42.874 E96.72155
G1 X119.918 Y44.728 E96.90367
G1 X120.035 Y45.935 E97.02038
G1 X120.012 Y47.788 E97.19870
G1 X119.878 Y48.936 E97.30991
G1 X119.483 Y50.707 E97.48453
G1 X119.136 Y51.758 E97.59101
G1 X118.442 Y53.322 E97.75560
G1 X118.001 Y54.128 E97.84407
G1 X117.263 Y55.249 E97.97315
G1 X116.806 Y55.849 E98.04569
G1 X115.845 Y56.929 E98.18485
G1 X87.739 Y85.035 E102.00923
G1 X87.327 Y85.408 E102.06277
G1 X86.094 Y86.417 E102.21602
G1 X85.156 Y87.038 E102.32425
G1 X83.489 Y87.913 E102.50542
G1 X83.155 Y88.046 E102.53995
G1 X83.046 Y88.155 E102.55477
G1 X82.913 Y88.489 E102.58930
G1 X82.038 Y90.156 E102.77048
G1 X81.417 Y91.094 E102.87870
G1 X80.408 Y92.327 E103.03196
G1 X80.035 Y92.739 E103.08550
G1 X51.929 Y120.845 E106.90988
G1 X50.849 Y121.806 E107.04904
G1 X50.249 Y122.263 E107.12158
G1 X49.129 Y123.001 E107.25065
G1 X48.322 Y123.442 E107.33912
G1 X46.758 Y124.136 E107.50372
G1 X45.707 Y124.483 E107.61019
G1 X43.936 Y124.878 E107.78482
G1 X42.788 Y125.012 E107.89602
G1 X40.935 Y125.035 E108.07435
G1 X39.728 Y124.918 E108.19106
G1 X37.874 Y124.533 E108.37318
G1 X36.671 Y124.135 E108.49511
G1 X34.920 Y123.327 E108.68064
G1 X33.806 Y122.645 E108.80641
G1 X32.534 Y121.644 E108.96212
G1 X32.040 Y121.205 E109.02566
G1 X23.862 Y113.027 E110.13852
G1 X23.542 Y112.679 E110.18393
G1 X22.796 Y111.794 E110.29537
G1 X22.253 Y111.028 E110.38565
G1 X21.513 Y109.771 E110.52604
G1 X21.060 Y108.801 E110.62902
G1 X20.481 Y107.167 E110.79582
G1 X20.207 Y106.021 E110.90917
G1 X19.979 Y104.261 E111.07996
G1 X19.948 Y103.134 E111.18841
G1 X20.077 Y101.370 E111.35860
G1 X20.275 Y100.252 E111.46788
G1 X20.785 Y98.455 E111.64757
G1 X21.213 Y97.385 E111.75846
G1 X22.089 Y95.719 E111.93958
G1 X22.710 Y94.780 E112.04786
G1 X23.718 Y93.547 E112.20110
G1 X24.091 Y93.135 E112.25464
G1 X52.172 Y65.053 E116.07568
G1 X53.130 Y64.190 E116.19977
G1 X53.558 Y63.852 E116.25227
G1 X54.355 Y63.287 E116.34620
G1 X54.730 Y63.040 E116.38939
G1 X55.280 Y62.721 E116.45057
G1 X56.282 Y62.214 E116.55868
G1 X56.854 Y61.952 E116.61913
G1 X56.952 Y61.854 E116.63254
G1 X57.214 Y61.282 E116.69299
G1 X57.721 Y60.280 E116.80109
G1 X58.040 Y59.730 E116.86228
G1 X58.287 Y59.355 E116.90547
G1 X58.852 Y58.558 E116.99940
G1 X59.190 Y58.130 E117.05190
G1 X60.012 Y57.216 E117.17022
G1 X60.565 Y57.670 F7800.000
G1 F900
G1 X88.627 Y29.609 E120.98859
G1 X89.013 Y29.259 E121.03870
G1 X90.204 Y28.285 E121.18675
G1 X91.083 Y27.704 E121.28809
G1 X92.684 Y26.863 E121.46219
G1 X93.686 Y26.462 E121.56597
G1 X95.412 Y25.972 E121.73860
G1 X96.459 Y25.787 E121.84087
G1 X98.150 Y25.663 E122.00408
G1 X99.205 Y25.692 E122.10557
G1 X100.892 Y25.911 E122.26925
G1 X101.964 Y26.167 E122.37534
G1 X103.530 Y26.722 E122.53520
G1 X104.438 Y27.145 E122.63158
G1 X105.640 Y27.853 E122.76577
G1 X106.356 Y28.361 E122.85026
G1 X107.207 Y29.079 E122.95736
G1 X107.532 Y29.377 E122.99985
G1 X115.685 Y37.530 E124.10921
G1 X116.095 Y37.992 E124.16869
G1 X117.057 Y39.214 E124.31832
G1 X117.696 Y40.258 E124.43603
G1 X118.470 Y41.933 E124.61361
G1 X118.841 Y43.060 E124.72773
G1 X119.211 Y44.835 E124.90220
G1 X119.320 Y45.965 E125.01143
G1 X119.298 Y47.742 E125.18245
G1 X119.173 Y48.817 E125.28653
G1 X118.794 Y50.517 E125.45418
G1 X118.469 Y51.501 E125.55383
G1 X117.801 Y53.005 E125.71218
G1 X117.388 Y53.760 E125.79498
G1 X116.679 Y54.835 E125.91890
G1 X116.252 Y55.397 E125.98678
G1 X115.331 Y56.433 E126.12016
G1 X87.247 Y84.517 E129.94166
G1 X86.861 Y84.867 E129.99176
G1 X85.669 Y85.841 E130.13983
G1 X84.791 Y86.422 E130.24111
G1 X83.189 Y87.264 E130.41527
G1 X82.606 Y87.497 E130.47571
G1 X82.497 Y87.606 E130.49053
G1 X82.264 Y88.189 E130.55097
G1 X81.422 Y89.791 E130.72513
G1 X80.841 Y90.669 E130.82641
G1 X79.867 Y91.861 E130.97448
G1 X79.517 Y92.247 E131.02458
G1 X51.433 Y120.331 E134.84609
G1 X50.397 Y121.252 E134.97946
G1 X49.835 Y121.679 E135.04734
G1 X48.760 Y122.388 E135.17126
G1 X48.005 Y122.801 E135.25405
G1 X46.501 Y123.469 E135.41241
G1 X45.517 Y123.794 E135.51206
G1 X43.817 Y124.173 E135.67972
G1 X42.742 Y124.298 E135.78379
G1 X40.965 Y124.320 E135.95481
G1 X39.835 Y124.211 E136.06404
G1 X38.060 Y123.841 E136.23851
G1 X36.933 Y123.470 E136.35263
G1 X35.258 Y122.696 E136.53022
G1 X34.214 Y122.057 E136.64792
G1 X32.992 Y121.095 E136.79756
G1 X32.530 Y120.685 E136.85703
G1 X24.377 Y112.532 E137.96639
G1 X24.079 Y112.207 E138.00889
G1 X23.361 Y111.356 E138.11598
G1 X22.853 Y110.640 E138.20047
G1 X22.145 Y109.438 E138.33467
G1 X21.722 Y108.530 E138.43104
G1 X21.167 Y106.964 E138.59091
G1 X20.911 Y105.892 E138.69699
G1 X20.692 Y104.205 E138.86067
G1 X20.663 Y103.150 E138.96217
G1 X20.787 Y101.459 E139.12537
G1 X20.972 Y100.412 E139.22764
G1 X21.462 Y98.686 E139.40027
G1 X21.863 Y97.684 E139.50405
G1 X22.704 Y96.083 E139.67815
G1 X23.285 Y95.204 E139.77949
G1 X24.259 Y94.013 E139.92754
G1 X24.609 Y93.627 E139.97765
G1 X52.670 Y65.565 E143.79602
G1 X53.587 Y64.739 E143.91475
G1 X53.988 Y64.423 E143.96388
G1 X55.106 Y63.648 E144.09478
G1 X55.621 Y63.349 E144.15204
G1 X56.597 Y62.855 E144.25731
G1 X57.395 Y62.493 E144.34160
G1 X57.493 Y62.395 E144.35501
G1 X57.855 Y61.597 E144.43930
G1 X58.349 Y60.621 E144.54457
G1 X58.648 Y60.106 E144.60183
G1 X59.423 Y58.988 E144.73273
G1 X59.739 Y58.587 E144.78187
G1 X60.524 Y57.714 E144.89482
G1 X61.077 Y58.169 F7800.000
G1 F900
G1 X89.119 Y30.127 E148.71053
G1 X89.479 Y29.801 E148.75721
G1 X90.629 Y28.861 E148.90007
G1 X91.447 Y28.320 E148.99446
G1 X92.984 Y27.512 E149.16154
G1 X93.917 Y27.139 E149.25821
G1 X95.572 Y26.669 E149.42378
G1 X96.547 Y26.496 E149.51905
G1 X98.166 Y26.378 E149.67527
G1 X99.149 Y26.405 E149.76980
G1 X100.762 Y26.614 E149.92637
G1 X101.761 Y26.853 E150.02519
G1 X103.259 Y27.384 E150.17812
G1 X104.105 Y27.778 E150.26789
G1 X105.251 Y28.453 E150.39590
G1 X105.919 Y28.926 E150.47460
G1 X106.735 Y29.615 E150.57734
G1 X107.038 Y29.893 E150.61692
G1 X115.165 Y38.020 E151.72279
G1 X115.547 Y38.451 E151.77819
G1 X116.470 Y39.623 E151.92176
G1 X117.065 Y40.595 E152.03140
G1 X117.804 Y42.196 E152.20104
G1 X118.150 Y43.245 E152.30734
G1 X118.504 Y44.942 E152.47417
G1 X118.605 Y45.995 E152.57591
G1 X118.585 Y47.696 E152.73963
