; generated by Slic3r 1.3.0 on 2019-10-18 at 22:01:20

; external perimeters extrusion width = 0.44mm (2.54mm^3/s)
; perimeters extrusion width = 0.48mm (5.65mm^3/s)
; infill extrusion width = 0.48mm (7.54mm^3/s)
; solid infill extrusion width = 0.48mm (2.51mm^3/s)
; top infill extrusion width = 0.48mm (1.88mm^3/s)
; support material extrusion width = 0.44mm (6.76mm^3/s)

M107
M104 S205 ; set temperature
G28 ; home all axes
G1 Z5 F5000 ; lift nozzle

; Filament gcode

M109 S205 ; set temperature and wait for it to be reached
G21 ; set units to millimeters
G90 ; use absolute coordinates
M82 ; use absolute distances for extrusion
G92 E0
G1 Z0.400 F7800.000
G1 E-2.00000 F2400.00000
G92 E0
G1 X32.707 Y47.583 F7800.000
G1 E2.00000 F2400.00000
G1 F900
G1 X33.763 Y46.952 E2.14607
G1 X34.746 Y46.546 E2.27239
G1 X35.504 Y46.347 E2.36544
G1 X36.100 Y46.251 E2.43719
G1 X37.000 Y46.191 E2.54431
G1 X118.000 Y46.191 E12.16429
G1 X118.779 Y46.237 E12.25692
G1 X119.496 Y46.347 E12.34315
G1 X120.264 Y46.549 E12.43740
G1 X121.395 Y47.032 E12.58346
G1 X122.293 Y47.583 E12.70862
G1 X123.102 Y48.273 E12.83494
G1 X123.917 Y49.207 E12.98214
G1 X124.548 Y50.263 E13.12818
G1 X124.954 Y51.244 E13.25426
G1 X125.153 Y52.004 E13.34761
G1 X125.249 Y52.600 E13.41930
G1 X125.309 Y53.500 E13.52645
G1 X125.309 Y65.500 E14.95163
G1 X125.263 Y66.279 E15.04428
G1 X125.153 Y66.996 E15.13047
G1 X124.950 Y67.767 E15.22510
G1 X124.468 Y68.895 E15.37080
G1 X123.911 Y69.801 E15.49713
G1 X123.102 Y70.727 E15.64316
G1 X122.293 Y71.417 E15.76947
G1 X121.238 Y72.048 E15.91551
G1 X120.253 Y72.455 E16.04206
G1 X119.496 Y72.653 E16.13493
G1 X118.779 Y72.763 E16.22117
G1 X118.000 Y72.809 E16.31380
G1 X37.000 Y72.809 E25.93378
G1 X36.221 Y72.763 E26.02641
G1 X35.504 Y72.653 E26.11263
G1 X34.736 Y72.451 E26.20695
G1 X33.605 Y71.968 E26.35293
G1 X32.699 Y71.411 E26.47930
G1 X31.773 Y70.602 E26.62531
G1 X31.082 Y69.793 E26.75170
G1 X30.452 Y68.737 E26.89767
G1 X30.046 Y67.754 E27.02406
G1 X29.847 Y66.996 E27.11709
G1 X29.737 Y66.279 E27.20331
G1 X29.691 Y65.500 E27.29594
G1 X29.691 Y53.500 E28.72113
G1 X29.751 Y52.600 E28.82825
G1 X29.847 Y52.004 E28.89996
G1 X30.046 Y51.246 E28.99304
G1 X30.532 Y50.105 E29.14028
G1 X31.083 Y49.207 E29.26540
G1 X31.773 Y48.398 E29.39174
G1 X32.661 Y47.621 E29.53184
G1 E27.53184 F2400.00000
G92 E0
G1 X77.176 Y52.624 F7800.000
G1 E2.00000 F2400.00000
G1 F900
G1 X77.824 Y52.624 E2.08629
G1 X77.992 Y52.041 E2.16700
G1 X78.103 Y51.775 E2.20532
G1 X78.314 Y51.361 E2.26711
G1 X78.464 Y51.115 E2.30544
G1 X78.827 Y50.655 E2.38340
G1 X79.155 Y50.326 E2.44520
G1 X79.374 Y50.139 E2.48355
G1 X79.861 Y49.814 E2.56148
G1 X80.275 Y49.603 E2.62327
G1 X80.541 Y49.492 E2.66162
G1 X80.997 Y49.358 E2.72482
G1 X81.681 Y49.252 E2.81690
G1 X118.107 Y49.240 E7.66301
G1 X118.620 Y49.287 E7.73166
G1 X119.210 Y49.412 E7.81188
G1 X119.725 Y49.603 E7.88493
G1 X120.139 Y49.814 E7.94674
G1 X120.385 Y49.964 E7.98507
G1 X120.845 Y50.327 E8.06302
G1 X121.173 Y50.655 E8.12480
G1 X121.536 Y51.115 E8.20274
G1 X121.686 Y51.361 E8.24108
G1 X121.897 Y51.775 E8.30283
G1 X122.088 Y52.289 E8.37579
G1 X122.190 Y52.733 E8.43639
G1 X122.260 Y53.393 E8.52480
G1 X122.260 Y65.607 E10.14964
G1 X122.213 Y66.120 E10.21831
G1 X122.088 Y66.711 E10.29867
G1 X121.897 Y67.225 E10.37162
G1 X121.686 Y67.639 E10.43336
G1 X121.536 Y67.885 E10.47168
G1 X121.173 Y68.345 E10.54964
G1 X120.845 Y68.673 E10.61142
G1 X120.626 Y68.860 E10.64974
G1 X120.139 Y69.186 E10.72770
G1 X119.725 Y69.397 E10.78953
G1 X119.458 Y69.508 E10.82791
G1 X119.210 Y69.588 E10.86269
G1 X118.767 Y69.690 E10.92307
G1 X118.107 Y69.760 E11.01149
G1 X81.681 Y69.748 E15.85760
G1 X80.997 Y69.642 E15.94968
G1 X80.541 Y69.508 E16.01289
G1 X80.275 Y69.397 E16.05123
G1 X79.861 Y69.186 E16.11302
G1 X79.616 Y69.036 E16.15133
G1 X79.155 Y68.674 E16.22930
G1 X78.827 Y68.345 E16.29111
G1 X78.639 Y68.126 E16.32944
G1 X78.314 Y67.639 E16.40740
G1 X78.103 Y67.225 E16.46919
G1 X77.992 Y66.959 E16.50752
G1 X77.824 Y66.376 E16.58821
G1 X77.176 Y66.376 E16.67450
G1 X77.008 Y66.959 E16.75519
G1 X76.897 Y67.225 E16.79352
G1 X76.686 Y67.639 E16.85532
G1 X76.536 Y67.884 E16.89363
G1 X76.173 Y68.345 E16.97161
G1 X75.845 Y68.674 E17.03342
G1 X75.626 Y68.861 E17.07175
G1 X75.139 Y69.186 E17.14969
G1 X74.725 Y69.397 E17.21147
G1 X74.459 Y69.508 E17.24980
G1 X74.003 Y69.642 E17.31304
G1 X73.319 Y69.748 E17.40511
G1 X36.893 Y69.760 E22.25122
G1 X36.233 Y69.690 E22.33964
G1 X35.789 Y69.588 E22.40012
G1 X35.541 Y69.507 E22.43490
G1 X35.275 Y69.397 E22.47321
G1 X34.861 Y69.186 E22.53500
G1 X34.374 Y68.860 E22.61297
G1 X34.155 Y68.673 E22.65129
G1 X33.826 Y68.345 E22.71308
G1 X33.464 Y67.884 E22.79105
G1 X33.314 Y67.639 E22.82936
G1 X33.103 Y67.225 E22.89115
G1 X32.912 Y66.710 E22.96421
G1 X32.787 Y66.120 E23.04442
G1 X32.740 Y65.607 E23.11307
G1 X32.740 Y53.393 E24.73791
G1 X32.810 Y52.733 E24.82632
G1 X32.912 Y52.290 E24.88680
G1 X33.103 Y51.775 E24.95984
G1 X33.314 Y51.361 E25.02163
G1 X33.464 Y51.115 E25.05995
G1 X33.827 Y50.655 E25.13791
G1 X34.155 Y50.327 E25.19969
G1 X34.615 Y49.964 E25.27765
G1 X34.861 Y49.814 E25.31599
G1 X35.275 Y49.603 E25.37778
G1 X35.790 Y49.412 E25.45081
G1 X36.380 Y49.287 E25.53105
G1 X36.893 Y49.240 E25.59970
G1 X73.319 Y49.252 E30.44582
G1 X74.003 Y49.358 E30.53790
G1 X74.459 Y49.493 E30.60115
G1 X74.725 Y49.603 E30.63946
G1 X75.139 Y49.814 E30.70123
G1 X75.384 Y49.964 E30.73952
G1 X75.845 Y50.326 E30.81751
G1 X76.173 Y50.655 E30.87931
G1 X76.360 Y50.874 E30.91763
G1 X76.686 Y51.361 E30.99560
G1 X76.897 Y51.775 E31.05740
G1 X77.008 Y52.041 E31.09571
G1 X77.161 Y52.566 E31.16845
G1 X76.384 Y52.782 F7800.000
G1 F900
G1 X76.460 Y53.417 E31.25347
G1 X76.460 Y65.583 E32.87212
G1 X76.420 Y66.011 E32.92934
G1 X76.320 Y66.485 E32.99376
G1 X76.170 Y66.890 E33.05117
G1 X75.870 Y67.440 E33.13449
G1 X75.586 Y67.802 E33.19575
G1 X75.301 Y68.086 E33.24919
G1 X74.940 Y68.370 E33.31045
G1 X74.390 Y68.670 E33.39376
G1 X73.985 Y68.820 E33.45117
G1 X73.511 Y68.920 E33.51560
G1 X73.083 Y68.960 E33.57281
G1 X36.917 Y68.960 E38.38444
G1 X36.374 Y68.902 E38.45711
G1 X35.818 Y68.756 E38.53352
G1 X35.252 Y68.488 E38.61684
G1 X34.870 Y68.232 E38.67809
G1 X34.414 Y67.802 E38.76142
G1 X34.130 Y67.440 E38.82268
G1 X33.830 Y66.890 E38.90599
G1 X33.680 Y66.485 E38.96341
G1 X33.580 Y66.012 E39.02783
G1 X33.540 Y65.583 E39.08505
G1 X33.540 Y53.417 E40.70370
G1 X33.580 Y52.989 E40.76092
G1 X33.680 Y52.515 E40.82536
G1 X33.830 Y52.110 E40.88276
G1 X34.130 Y51.560 E40.96609
G1 X34.414 Y51.198 E41.02733
G1 X34.698 Y50.914 E41.08075
G1 X35.060 Y50.630 E41.14200
G1 X35.610 Y50.330 E41.22534
G1 X36.015 Y50.180 E41.28273
G1 X36.488 Y50.080 E41.34717
G1 X36.917 Y50.040 E41.40439
G1 X73.250 Y50.049 E46.23814
G1 X73.824 Y50.137 E46.31539
G1 X74.182 Y50.244 E46.36513
G1 X74.390 Y50.330 E46.39509
G1 X74.940 Y50.630 E46.47838
G1 X75.301 Y50.914 E46.53964
G1 X75.732 Y51.370 E46.62298
G1 X75.988 Y51.752 E46.68423
G1 X76.256 Y52.318 E46.76756
G1 X76.372 Y52.723 E46.82363
G1 X75.599 Y52.939 F7800.000
G1 F900
G1 X75.660 Y53.440 E46.89076
G1 X75.653 Y65.680 E48.51917
G1 X75.583 Y66.144 E48.58158
G1 X75.505 Y66.405 E48.61781
G1 X75.289 Y66.857 E48.68443
G1 X75.103 Y67.135 E48.72896
G1 X74.998 Y67.258 E48.75056
G1 X74.635 Y67.603 E48.81720
G1 X74.357 Y67.789 E48.86171
G1 X73.905 Y68.005 E48.92833
G1 X73.485 Y68.114 E48.98598
G1 X73.060 Y68.160 E49.04290
G1 X36.940 Y68.160 E53.84834
G1 X36.597 Y68.127 E53.89412
G1 X36.240 Y68.052 E53.94278
G1 X35.945 Y67.943 E53.98453
G1 X35.505 Y67.705 E54.05115
G1 X35.242 Y67.498 E54.09568
G1 X34.897 Y67.135 E54.16231
G1 X34.711 Y66.857 E54.20683
G1 X34.495 Y66.405 E54.27345
G1 X34.386 Y65.985 E54.33109
G1 X34.340 Y65.560 E54.38802
G1 X34.347 Y53.320 E56.01643
G1 X34.417 Y52.856 E56.07884
G1 X34.495 Y52.595 E56.11508
G1 X34.711 Y52.143 E56.18169
G1 X34.897 Y51.865 E56.22622
G1 X35.242 Y51.502 E56.29284
G1 X35.505 Y51.295 E56.33737
G1 X35.643 Y51.211 E56.35897
G1 X36.095 Y50.995 E56.42559
G1 X36.515 Y50.886 E56.48323
G1 X36.940 Y50.840 E56.54016
G1 X73.060 Y50.840 E61.34560
G1 X73.485 Y50.886 E61.40252
G1 X73.905 Y50.995 E61.46018
G1 X74.357 Y51.211 E61.52678
G1 X74.635 Y51.397 E61.57129
G1 X74.998 Y51.742 E61.63793
G1 X75.205 Y52.005 E61.68246
G1 X75.443 Y52.445 E61.74909
G1 X75.587 Y52.880 E61.81007
G1 X74.815 Y53.096 F7800.000
G1 F900
G1 X74.860 Y53.463 E61.85930
G1 X74.856 Y65.610 E63.47534
G1 X74.827 Y65.844 E63.50675
G1 X74.754 Y66.128 E63.54564
G1 X74.591 Y66.465 E63.59555
G1 X74.474 Y66.639 E63.62337
G1 X74.139 Y66.974 E63.68647
G1 X73.965 Y67.091 E63.71428
G1 X73.628 Y67.254 E63.76418
G1 X73.344 Y67.327 E63.80308
G1 X73.037 Y67.360 E63.84425
G1 X36.963 Y67.360 E68.64350
G1 X36.706 Y67.335 E68.67785
G1 X36.465 Y67.284 E68.71071
G1 X36.280 Y67.216 E68.73683
G1 X35.950 Y67.039 E68.78674
G1 X35.785 Y66.910 E68.81455
G1 X35.526 Y66.639 E68.86447
G1 X35.409 Y66.465 E68.89228
G1 X35.246 Y66.128 E68.94219
G1 X35.173 Y65.844 E68.98108
G1 X35.140 Y65.537 E69.02226
G1 X35.144 Y53.390 E70.63831
G1 X35.173 Y53.156 E70.66971
G1 X35.246 Y52.872 E70.70861
G1 X35.409 Y52.535 E70.75851
G1 X35.526 Y52.361 E70.78633
G1 X35.785 Y52.090 E70.83623
G1 X35.950 Y51.961 E70.86405
G1 X36.372 Y51.746 E70.92714
G1 X36.656 Y51.673 E70.96604
G1 X36.963 Y51.640 E71.00721
G1 X73.037 Y51.640 E75.80646
G1 X73.344 Y51.673 E75.84764
G1 X73.628 Y51.746 E75.88654
G1 X73.965 Y51.909 E75.93644
G1 X74.139 Y52.026 E75.96425
G1 X74.410 Y52.285 E76.01417
G1 X74.539 Y52.450 E76.04198
G1 X74.716 Y52.780 E76.09189
G1 X74.803 Y53.037 E76.12796
G1 X74.030 Y53.253 F7800.000
G1 F900
G1 X74.060 Y53.486 E76.15928
G1 X74.060 Y65.514 E77.75937
G1 X74.016 Y65.810 E77.79930
G1 X73.873 Y66.105 E77.84291
G1 X73.643 Y66.346 E77.88714
G1 X73.351 Y66.503 E77.93136
G1 X73.014 Y66.560 E77.97685
G1 X36.986 Y66.560 E82.76991
G1 X36.690 Y66.516 E82.80985
G1 X36.395 Y66.373 E82.85345
G1 X36.154 Y66.143 E82.89768
G1 X35.997 Y65.851 E82.94190
G1 X35.940 Y65.514 E82.98739
G1 X35.940 Y53.486 E84.58747
G1 X35.984 Y53.190 E84.62741
G1 X36.127 Y52.895 E84.67101
G1 X36.357 Y52.654 E84.71524
G1 X36.649 Y52.497 E84.75947
G1 X36.986 Y52.440 E84.80495
G1 X73.014 Y52.440 E89.59801
G1 X73.351 Y52.497 E89.64350
G1 X73.643 Y52.654 E89.68772
G1 X73.873 Y52.895 E89.73195
G1 X74.017 Y53.194 E89.77620
G1 E87.77620 F2400.00000
G92 E0
G1 X78.540 Y53.417 F7800.000
G1 E2.00000 F2400.00000
G1 F900
G1 X78.598 Y52.874 E2.07267
G1 X78.744 Y52.318 E2.14908
G1 X79.012 Y51.752 E2.23240
G1 X79.130 Y51.560 E2.26237
G1 X79.414 Y51.198 E2.32361
G1 X79.870 Y50.768 E2.40697
G1 X80.252 Y50.512 E2.46819
G1 X80.610 Y50.330 E2.52162
G1 X80.818 Y50.244 E2.55160
G1 X81.177 Y50.137 E2.60131
G1 X81.750 Y50.049 E2.67855
G1 X118.083 Y50.040 E7.51230
G1 X118.512 Y50.080 E7.56952
G1 X118.985 Y50.180 E7.63394
G1 X119.390 Y50.330 E7.69136
G1 X119.940 Y50.630 E7.77470
G1 X120.302 Y50.915 E7.83594
G1 X120.586 Y51.198 E7.88936
G1 X120.870 Y51.560 E7.95060
G1 X121.170 Y52.110 E8.03390
G1 X121.320 Y52.514 E8.09124
G1 X121.420 Y52.988 E8.15577
G1 X121.460 Y53.417 E8.21299
G1 X121.460 Y65.583 E9.83165
G1 X121.420 Y66.012 E9.88887
G1 X121.320 Y66.486 E9.95342
G1 X121.170 Y66.890 E10.01075
G1 X120.870 Y67.440 E10.09403
G1 X120.586 Y67.802 E10.15528
G1 X120.130 Y68.232 E10.23859
G1 X119.748 Y68.488 E10.29984
G1 X119.181 Y68.757 E10.38325
G1 X118.626 Y68.902 E10.45958
G1 X118.083 Y68.960 E10.53226
G1 X81.917 Y68.960 E15.34388
G1 X81.488 Y68.920 E15.40110
G1 X81.015 Y68.820 E15.46551
G1 X80.610 Y68.670 E15.52293
G1 X80.060 Y68.370 E15.60625
G1 X79.698 Y68.086 E15.66750
G1 X79.414 Y67.802 E15.72094
G1 X79.130 Y67.440 E15.78220
G1 X78.830 Y66.890 E15.86552
G1 X78.680 Y66.485 E15.92293
G1 X78.598 Y66.126 E15.97190
G1 X78.540 Y65.583 E16.04458
G1 X78.540 Y53.477 E17.65524
G1 X79.340 Y53.440 F7800.000
G1 F900
G1 X79.386 Y53.015 E17.71217
G1 X79.495 Y52.595 E17.76982
G1 X79.711 Y52.143 E17.83643
G1 X79.795 Y52.005 E17.85804
G1 X80.002 Y51.742 E17.90257
G1 X80.365 Y51.397 E17.96921
G1 X80.643 Y51.211 E18.01372
G1 X80.945 Y51.057 E18.05878
G1 X81.356 Y50.917 E18.11654
G1 X81.820 Y50.847 E18.17895
G1 X118.060 Y50.840 E23.00033
G1 X118.403 Y50.873 E23.04612
G1 X118.760 Y50.948 E23.09475
G1 X119.055 Y51.057 E23.13652
G1 X119.495 Y51.296 E23.20315
G1 X119.758 Y51.502 E23.24768
G1 X119.998 Y51.742 E23.29274
G1 X120.204 Y52.005 E23.33726
G1 X120.443 Y52.445 E23.40386
G1 X120.552 Y52.739 E23.44558
G1 X120.627 Y53.097 E23.49429
G1 X120.660 Y53.440 E23.54008
G1 X120.660 Y65.560 E25.15254
G1 X120.627 Y65.903 E25.19833
G1 X120.552 Y66.261 E25.24705
G1 X120.443 Y66.555 E25.28876
G1 X120.205 Y66.995 E25.35535
G1 X119.998 Y67.258 E25.39988
G1 X119.635 Y67.603 E25.46649
G1 X119.357 Y67.789 E25.51102
G1 X118.904 Y68.005 E25.57769
G1 X118.485 Y68.114 E25.63529
G1 X118.060 Y68.160 E25.69222
G1 X81.940 Y68.160 E30.49766
G1 X81.597 Y68.127 E30.54344
G1 X81.240 Y68.052 E30.59207
G1 X80.945 Y67.943 E30.63384
G1 X80.505 Y67.705 E30.70045
G1 X80.242 Y67.498 E30.74499
G1 X80.002 Y67.258 E30.79006
G1 X79.795 Y66.995 E30.83460
G1 X79.557 Y66.555 E30.90122
G1 X79.448 Y66.260 E30.94298
G1 X79.373 Y65.903 E30.99162
G1 X79.340 Y65.560 E31.03740
G1 X79.340 Y53.500 E32.64188
G1 X80.140 Y53.463 F7800.000
G1 F900
G1 X80.173 Y53.156 E32.68306
G1 X80.246 Y52.872 E32.72196
G1 X80.409 Y52.535 E32.77186
G1 X80.590 Y52.285 E32.81285
G1 X80.861 Y52.026 E32.86277
G1 X81.035 Y51.909 E32.89058
G1 X81.280 Y51.784 E32.92728
G1 X81.536 Y51.697 E32.96320
G1 X81.963 Y51.640 E33.02054
G1 X118.037 Y51.640 E37.81979
G1 X118.294 Y51.665 E37.85414
G1 X118.535 Y51.716 E37.88698
G1 X118.720 Y51.784 E37.91311
G1 X119.050 Y51.961 E37.96302
G1 X119.215 Y52.090 E37.99084
G1 X119.474 Y52.361 E38.04073
G1 X119.591 Y52.535 E38.06855
G1 X119.754 Y52.872 E38.11842
G1 X119.827 Y53.156 E38.15736
G1 X119.856 Y53.390 E38.18876
G1 X119.860 Y65.537 E39.80481
G1 X119.835 Y65.794 E39.83917
G1 X119.784 Y66.036 E39.87207
G1 X119.716 Y66.220 E39.89816
G1 X119.539 Y66.550 E39.94804
G1 X119.410 Y66.715 E39.97586
G1 X119.139 Y66.974 E40.02576
G1 X118.965 Y67.091 E40.05358
G1 X118.627 Y67.254 E40.10352
G1 X118.344 Y67.327 E40.14239
G1 X118.037 Y67.360 E40.18356
G1 X81.963 Y67.360 E44.98281
G1 X81.706 Y67.335 E45.01716
G1 X81.465 Y67.284 E45.05001
G1 X81.280 Y67.216 E45.07614
G1 X80.950 Y67.039 E45.12603
G1 X80.785 Y66.910 E45.15386
G1 X80.526 Y66.639 E45.20377
G1 X80.409 Y66.465 E45.23159
G1 X80.246 Y66.128 E45.28150
G1 X80.173 Y65.844 E45.32039
G1 X80.144 Y65.610 E45.35179
G1 X80.140 Y53.523 E46.95986
G1 X80.940 Y53.486 F7800.000
G1 F900
G1 X80.997 Y53.149 E47.00534
G1 X81.108 Y52.926 E47.03854
G1 X81.178 Y52.829 E47.05449
G1 X81.357 Y52.654 E47.08769
G1 X81.616 Y52.511 E47.12707
G1 X81.797 Y52.461 E47.15204
G1 X81.986 Y52.440 E47.17747
G1 X118.014 Y52.440 E51.97053
G1 X118.310 Y52.484 E52.01047
G1 X118.605 Y52.627 E52.05408
G1 X118.846 Y52.857 E52.09830
G1 X119.003 Y53.149 E52.14251
G1 X119.060 Y53.486 E52.18801
G1 X119.060 Y65.514 E53.78810
G1 X119.016 Y65.811 E53.82805
G1 X118.873 Y66.105 E53.87164
G1 X118.643 Y66.346 E53.91586
G1 X118.351 Y66.503 E53.96010
G1 X118.014 Y66.560 E54.00557
G1 X81.986 Y66.560 E58.79864
G1 X81.690 Y66.516 E58.83857
G1 X81.395 Y66.373 E58.88217
G1 X81.154 Y66.143 E58.92640
G1 X80.997 Y65.851 E58.97063
G1 X80.940 Y65.514 E59.01611
G1 X80.940 Y53.546 E60.60822
G1 E58.60822 F2400.00000
G92 E0
G1 X109.246 Y59.191 F7800.000
G1 E2.00000 F2400.00000
G1 F900
G1 X109.357 Y58.900 E2.04141
G1 X109.534 Y58.644 E2.08282
G1 X109.767 Y58.437 E2.12423
G1 X110.042 Y58.293 E2.16565
G1 X110.344 Y58.218 E2.20706
G1 X110.656 Y58.218 E2.24847
G1 X110.958 Y58.293 E2.28988
G1 X111.233 Y58.437 E2.33129
G1 X111.466 Y58.644 E2.37270
G1 X111.643 Y58.900 E2.41411
G1 X111.754 Y59.191 E2.45553
G1 X111.791 Y59.500 E2.49694
G1 X111.754 Y59.809 E2.53835
G1 X111.643 Y60.100 E2.57976
G1 X111.466 Y60.356 E2.62117
G1 X111.233 Y60.563 E2.66259
G1 X110.958 Y60.707 E2.70400
G1 X110.656 Y60.782 E2.74541
G1 X110.344 Y60.782 E2.78682
G1 X110.042 Y60.707 E2.82823
G1 X109.767 Y60.563 E2.86964
G1 X109.534 Y60.356 E2.91105
G1 X109.357 Y60.100 E2.95247
G1 X109.246 Y59.809 E2.99388
G1 X109.209 Y59.500 E3.03529
G1 X109.239 Y59.251 E3.06872
