; generated by Slic3r 1.3.0 on 2019-10-23 at 23:01:20

; external perimeters extrusion width = 0.44mm (1.69mm^3/s)
; perimeters extrusion width = 0.48mm (4.40mm^3/s)
; infill extrusion width = 0.48mm (5.03mm^3/s)
; solid infill extrusion width = 0.48mm (2.51mm^3/s)
; top infill extrusion width = 0.48mm (1.88mm^3/s)

M107
M104 S220 ; set temperature
G28 ; home all axes
G1 Z5 F5000 ; lift nozzle

; Filament gcode

M109 S220 ; set temperature and wait for it to be reached
G21 ; set units to millimeters
G90 ; use absolute coordinates
M82 ; use absolute distances for extrusion
G92 E0
G1 Z0.400 F7800.000
G1 E-2.00000 F2400.00000
G92 E0
G1 X43.416 Y58.082 F7800.000
G1 E2.00000 F2400.00000
G1 F900
G1 X44.269 Y57.462 E2.10142
G1 X45.159 Y56.917 E2.20185
G1 X46.246 Y56.363 E2.31927
G1 X47.210 Y55.963 E2.41972
G1 X48.085 Y55.679 E2.50823
G1 X48.835 Y55.483 E2.58282
G1 X49.538 Y55.342 E2.65175
G1 X50.071 Y55.258 E2.70364
G1 X50.843 Y55.168 E2.77849
G1 X51.614 Y55.123 E2.85278
G1 X88.386 Y55.123 E6.39087
G1 X89.157 Y55.168 E6.46516
G1 X89.929 Y55.258 E6.54001
G1 X91.164 Y55.483 E6.66078
G1 X91.914 Y55.679 E6.73536
G1 X92.789 Y55.963 E6.82387
G1 X93.754 Y56.363 E6.92435
G1 X94.841 Y56.917 E7.04176
G1 X95.731 Y57.462 E7.14218
G1 X96.584 Y58.082 E7.24359
G1 X97.378 Y58.760 E7.34403
G1 X98.240 Y59.622 E7.46141
G1 X98.918 Y60.416 E7.56181
G1 X99.538 Y61.268 E7.66323
G1 X100.083 Y62.159 E7.76369
G1 X100.637 Y63.246 E7.88111
G1 X101.037 Y64.210 E7.98155
G1 X101.321 Y65.085 E8.07006
G1 X101.517 Y65.835 E8.14466
G1 X101.658 Y66.538 E8.21359
G1 X101.742 Y67.071 E8.26548
G1 X101.832 Y67.843 E8.34032
G1 X101.877 Y68.614 E8.41461
G1 X101.877 Y81.386 E9.64349
G1 X101.832 Y82.157 E9.71778
G1 X101.742 Y82.929 E9.79262
G1 X101.658 Y83.462 E9.84450
G1 X101.517 Y84.164 E9.91343
G1 X101.321 Y84.915 E9.98803
G1 X101.037 Y85.790 E10.07655
G1 X100.637 Y86.754 E10.17700
G1 X100.083 Y87.841 E10.29440
G1 X99.538 Y88.731 E10.39480
G1 X98.919 Y89.584 E10.49622
G1 X98.241 Y90.378 E10.59667
G1 X97.378 Y91.240 E10.71408
G1 X96.584 Y91.918 E10.81451
G1 X95.731 Y92.538 E10.91593
G1 X94.841 Y93.083 E11.01634
G1 X93.754 Y93.637 E11.13374
G1 X92.790 Y94.037 E11.23417
G1 X91.915 Y94.321 E11.32268
G1 X91.165 Y94.517 E11.39730
G1 X89.929 Y94.742 E11.51810
G1 X89.157 Y94.832 E11.59294
G1 X88.386 Y94.877 E11.66723
G1 X51.614 Y94.877 E15.20533
G1 X50.843 Y94.832 E15.27962
G1 X50.071 Y94.742 E15.35446
G1 X48.835 Y94.517 E15.47527
G1 X48.084 Y94.321 E15.54996
G1 X47.209 Y94.036 E15.63848
G1 X46.246 Y93.637 E15.73884
G1 X45.159 Y93.083 E15.85622
G1 X44.269 Y92.538 E15.95666
G1 X43.416 Y91.918 E16.05808
G1 X42.622 Y91.240 E16.15849
G1 X41.760 Y90.378 E16.27587
G1 X41.082 Y89.584 E16.37626
G1 X40.462 Y88.732 E16.47768
G1 X39.917 Y87.841 E16.57813
G1 X39.363 Y86.754 E16.69556
G1 X38.963 Y85.790 E16.79600
G1 X38.679 Y84.915 E16.88451
G1 X38.483 Y84.165 E16.95910
G1 X38.258 Y82.929 E17.07990
G1 X38.168 Y82.157 E17.15475
G1 X38.123 Y81.386 E17.22904
G1 X38.123 Y68.614 E18.45793
G1 X38.168 Y67.843 E18.53222
G1 X38.258 Y67.071 E18.60706
G1 X38.483 Y65.836 E18.72783
G1 X38.679 Y65.086 E18.80239
G1 X38.963 Y64.211 E18.89090
G1 X39.363 Y63.246 E18.99139
G1 X39.917 Y62.159 E19.10882
G1 X40.462 Y61.269 E19.20924
G1 X41.082 Y60.416 E19.31066
G1 X41.760 Y59.622 E19.41109
G1 X42.622 Y58.760 E19.52848
G1 X43.370 Y58.121 E19.62311
G1 X43.858 Y58.643 F7800.000
G1 F900
G1 X44.666 Y58.057 E19.71913
G1 X45.508 Y57.541 E19.81416
G1 X46.545 Y57.012 E19.92618
G1 X47.458 Y56.634 E20.02123
G1 X48.286 Y56.365 E20.10503
G1 X48.996 Y56.179 E20.17561
G1 X49.664 Y56.046 E20.24114
G1 X50.905 Y55.880 E20.36167
G1 X51.635 Y55.837 E20.43196
G1 X88.365 Y55.837 E23.96606
G1 X89.095 Y55.880 E24.03635
G1 X89.832 Y55.966 E24.10781
G1 X91.004 Y56.179 E24.22240
G1 X91.713 Y56.365 E24.29296
G1 X92.542 Y56.634 E24.37677
G1 X93.455 Y57.012 E24.47184
G1 X94.492 Y57.540 E24.58385
G1 X95.334 Y58.056 E24.67887
G1 X96.141 Y58.643 E24.77488
G1 X96.892 Y59.284 E24.86992
G1 X97.715 Y60.107 E24.98190
G1 X98.357 Y60.858 E25.07690
G1 X98.943 Y61.666 E25.17292
G1 X99.459 Y62.508 E25.26797
G1 X99.988 Y63.545 E25.37999
G1 X100.366 Y64.458 E25.47503
G1 X100.635 Y65.286 E25.55884
G1 X100.821 Y65.996 E25.62942
G1 X101.034 Y67.168 E25.74403
G1 X101.120 Y67.905 E25.81548
G1 X101.163 Y68.635 E25.88577
G1 X101.163 Y81.365 E27.11066
G1 X101.120 Y82.095 E27.18095
G1 X101.034 Y82.832 E27.25240
G1 X100.821 Y84.004 E27.36700
G1 X100.635 Y84.714 E27.43759
G1 X100.366 Y85.542 E27.52140
G1 X99.988 Y86.455 E27.61645
G1 X99.460 Y87.492 E27.72844
G1 X98.944 Y88.334 E27.82345
G1 X98.357 Y89.141 E27.91947
G1 X97.716 Y89.892 E28.01451
G1 X96.892 Y90.716 E28.12652
G1 X96.141 Y91.357 E28.22155
G1 X95.334 Y91.944 E28.31757
G1 X94.492 Y92.460 E28.41258
G1 X93.455 Y92.988 E28.52458
G1 X92.542 Y93.366 E28.61961
G1 X91.714 Y93.635 E28.70342
G1 X91.004 Y93.821 E28.77402
G1 X89.832 Y94.034 E28.88863
G1 X89.095 Y94.120 E28.96008
G1 X88.365 Y94.163 E29.03037
G1 X51.635 Y94.163 E32.56447
G1 X50.905 Y94.120 E32.63477
G1 X50.168 Y94.034 E32.70622
G1 X48.996 Y93.821 E32.82084
G1 X48.285 Y93.635 E32.89151
G1 X47.457 Y93.366 E32.97532
G1 X46.545 Y92.988 E33.07029
G1 X45.508 Y92.459 E33.18227
G1 X44.666 Y91.943 E33.27731
G1 X43.858 Y91.357 E33.37333
G1 X43.107 Y90.715 E33.46834
G1 X42.285 Y89.893 E33.58031
G1 X41.643 Y89.142 E33.67531
G1 X41.057 Y88.334 E33.77133
G1 X40.541 Y87.492 E33.86638
G1 X40.012 Y86.455 E33.97840
G1 X39.634 Y85.542 E34.07344
G1 X39.365 Y84.714 E34.15725
G1 X39.179 Y84.004 E34.22782
G1 X38.966 Y82.832 E34.34244
G1 X38.880 Y82.095 E34.41389
G1 X38.837 Y81.365 E34.48418
G1 X38.837 Y68.635 E35.70908
G1 X38.880 Y67.905 E35.77937
G1 X38.966 Y67.168 E35.85083
G1 X39.179 Y65.996 E35.96541
G1 X39.365 Y65.287 E36.03595
G1 X39.634 Y64.458 E36.11976
G1 X40.012 Y63.545 E36.21484
G1 X40.541 Y62.508 E36.32687
G1 X41.057 Y61.666 E36.42190
G1 X41.643 Y60.859 E36.51791
G1 X42.284 Y60.108 E36.61294
G1 X43.108 Y59.284 E36.72493
G1 X43.813 Y58.682 E36.81416
G1 X44.301 Y59.205 F7800.000
G1 F900
G1 X45.063 Y58.651 E36.90478
G1 X45.857 Y58.164 E36.99441
G1 X46.844 Y57.661 E37.10103
G1 X47.705 Y57.305 E37.19067
G1 X48.487 Y57.051 E37.26977
G1 X49.156 Y56.876 E37.33634
G1 X49.790 Y56.749 E37.39847
G1 X50.968 Y56.592 E37.51282
G1 X51.655 Y56.552 E37.57911
G1 X88.345 Y56.552 E41.10922
G1 X89.032 Y56.592 E41.17551
G1 X89.735 Y56.674 E41.24357
G1 X90.843 Y56.876 E41.35198
G1 X91.513 Y57.051 E41.41853
G1 X92.295 Y57.305 E41.49763
G1 X93.156 Y57.661 E41.58730
G1 X94.143 Y58.164 E41.69391
G1 X94.937 Y58.651 E41.78352
G1 X95.699 Y59.204 E41.87414
G1 X96.407 Y59.809 E41.96377
G1 X97.191 Y60.593 E42.07036
G1 X97.795 Y61.301 E42.15995
G1 X98.349 Y62.063 E42.25057
G1 X98.836 Y62.857 E42.34023
G1 X99.339 Y63.845 E42.44685
G1 X99.695 Y64.705 E42.53648
G1 X99.949 Y65.487 E42.61558
G1 X100.124 Y66.156 E42.68216
G1 X100.326 Y67.265 E42.79057
G1 X100.408 Y67.968 E42.85863
G1 X100.448 Y68.655 E42.92493
G1 X100.448 Y81.345 E44.14582
G1 X100.408 Y82.032 E44.21212
G1 X100.326 Y82.735 E44.28017
G1 X100.124 Y83.843 E44.38858
G1 X99.949 Y84.513 E44.45516
G1 X99.695 Y85.295 E44.53427
G1 X99.339 Y86.156 E44.62391
G1 X98.836 Y87.143 E44.73050
G1 X98.349 Y87.937 E44.82011
G1 X97.796 Y88.699 E44.91073
G1 X97.191 Y89.407 E45.00037
G1 X96.407 Y90.191 E45.10698
G1 X95.699 Y90.796 E45.19661
G1 X94.937 Y91.349 E45.28723
G1 X94.143 Y91.836 E45.37684
G1 X93.156 Y92.339 E45.48344
G1 X92.295 Y92.695 E45.57306
G1 X91.513 Y92.949 E45.65217
G1 X90.844 Y93.124 E45.71876
G1 X89.735 Y93.326 E45.82717
G1 X89.032 Y93.408 E45.89523
G1 X88.345 Y93.448 E45.96153
G1 X51.655 Y93.448 E49.49164
G1 X50.968 Y93.408 E49.55794
G1 X50.265 Y93.326 E49.62599
G1 X49.156 Y93.124 E49.73443
G1 X48.486 Y92.949 E49.80108
G1 X47.704 Y92.695 E49.88018
G1 X46.844 Y92.339 E49.96976
G1 X45.857 Y91.836 E50.07634
G1 X45.063 Y91.349 E50.16597
G1 X44.301 Y90.795 E50.25659
G1 X43.593 Y90.191 E50.34620
G1 X42.809 Y89.407 E50.45278
G1 X42.205 Y88.699 E50.54237
G1 X41.651 Y87.937 E50.63299
G1 X41.164 Y87.143 E50.72264
G1 X40.661 Y86.156 E50.82926
G1 X40.305 Y85.295 E50.91890
G1 X40.051 Y84.513 E50.99800
G1 X39.876 Y83.844 E51.06456
G1 X39.674 Y82.735 E51.17299
G1 X39.592 Y82.032 E51.24105
G1 X39.552 Y81.345 E51.30735
G1 X39.552 Y68.655 E52.52824
G1 X39.592 Y67.968 E52.59454
G1 X39.674 Y67.265 E52.66260
G1 X39.876 Y66.157 E52.77100
G1 X40.050 Y65.488 E52.83753
G1 X40.304 Y64.706 E52.91663
G1 X40.661 Y63.845 E53.00631
G1 X41.164 Y62.857 E53.11294
G1 X41.651 Y62.063 E53.20256
G1 X42.204 Y61.301 E53.29318
G1 X42.809 Y60.593 E53.38280
G1 X43.593 Y59.809 E53.48939
G1 X44.255 Y59.244 E53.57323
G1 X44.743 Y59.766 F7800.000
G1 F900
G1 X45.460 Y59.245 E53.65844
G1 X46.206 Y58.788 E53.74268
G1 X47.144 Y58.310 E53.84389
G1 X47.953 Y57.975 E53.92813
G1 X48.688 Y57.736 E54.00253
G1 X49.317 Y57.572 E54.06508
G1 X49.915 Y57.452 E54.12381
G1 X51.030 Y57.304 E54.23198
G1 X51.676 Y57.266 E54.29428
G1 X88.324 Y57.266 E57.82039
G1 X88.970 Y57.304 E57.88269
G1 X89.638 Y57.382 E57.94736
G1 X90.683 Y57.572 E58.04957
G1 X91.312 Y57.736 E58.11211
G1 X92.047 Y57.975 E58.18651
G1 X92.856 Y58.310 E58.27077
G1 X93.794 Y58.788 E58.37198
G1 X94.540 Y59.245 E58.45619
G1 X95.256 Y59.766 E58.54141
G1 X95.922 Y60.334 E58.62564
G1 X96.666 Y61.078 E58.72683
G1 X97.234 Y61.743 E58.81103
G1 X97.755 Y62.460 E58.89624
G1 X98.212 Y63.206 E58.98049
G1 X98.690 Y64.144 E59.08171
G1 X99.025 Y64.953 E59.16595
G1 X99.264 Y65.688 E59.24034
G1 X99.428 Y66.317 E59.30290
G1 X99.618 Y67.362 E59.40513
G1 X99.696 Y68.030 E59.46979
G1 X99.734 Y68.676 E59.53209
G1 X99.734 Y81.324 E60.74900
G1 X99.696 Y81.970 E60.81130
G1 X99.618 Y82.638 E60.87596
G1 X99.428 Y83.683 E60.97818
G1 X99.264 Y84.312 E61.04075
G1 X99.025 Y85.047 E61.11514
G1 X98.690 Y85.856 E61.19938
G1 X98.212 Y86.793 E61.30058
G1 X97.755 Y87.540 E61.38479
G1 X97.234 Y88.256 E61.47000
G1 X96.666 Y88.922 E61.55424
G1 X95.922 Y89.666 E61.65545
G1 X95.256 Y90.234 E61.73968
G1 X94.540 Y90.755 E61.82490
G1 X93.793 Y91.212 E61.90911
G1 X92.856 Y91.690 E62.01031
G1 X92.048 Y92.025 E62.09453
G1 X91.312 Y92.264 E62.16893
G1 X90.683 Y92.428 E62.23151
G1 X89.638 Y92.618 E62.33373
G1 X88.970 Y92.696 E62.39840
G1 X88.324 Y92.734 E62.46070
G1 X51.676 Y92.734 E65.98681
G1 X51.030 Y92.696 E66.04912
G1 X50.362 Y92.618 E66.11378
G1 X49.317 Y92.428 E66.21602
G1 X48.687 Y92.263 E66.27866
G1 X47.952 Y92.024 E66.35306
G1 X47.143 Y91.689 E66.43723
G1 X46.206 Y91.212 E66.53841
G1 X45.460 Y90.755 E66.62265
G1 X44.743 Y90.234 E66.70787
G1 X44.078 Y89.666 E66.79208
G1 X43.334 Y88.922 E66.89325
G1 X42.766 Y88.257 E66.97745
G1 X42.245 Y87.540 E67.06267
G1 X41.788 Y86.794 E67.14692
G1 X41.310 Y85.856 E67.24813
G1 X40.975 Y85.047 E67.33237
G1 X40.736 Y84.312 E67.40676
G1 X40.572 Y83.683 E67.46932
G1 X40.382 Y82.638 E67.57155
G1 X40.304 Y81.970 E67.63622
G1 X40.266 Y81.324 E67.69852
G1 X40.266 Y68.676 E68.91543
G1 X40.304 Y68.030 E68.97773
G1 X40.452 Y66.916 E69.08589
G1 X40.572 Y66.317 E69.14460
G1 X40.736 Y65.688 E69.20713
G1 X40.975 Y64.953 E69.28152
G1 X41.310 Y64.144 E69.36580
G1 X41.788 Y63.206 E69.46702
G1 X42.245 Y62.460 E69.55124
G1 X42.766 Y61.744 E69.63646
G1 X43.334 Y61.078 E69.72068
G1 X44.078 Y60.334 E69.82187
G1 X44.698 Y59.805 E69.90031
G1 X45.186 Y60.327 F7800.000
G1 F900
G1 X45.857 Y59.840 E69.98012
G1 X46.556 Y59.412 E70.05896
G1 X47.443 Y58.960 E70.15477
G1 X48.200 Y58.646 E70.23361
G1 X48.889 Y58.422 E70.30329
G1 X49.477 Y58.268 E70.36184
G1 X50.041 Y58.155 E70.41716
G1 X51.092 Y58.016 E70.51915
G1 X51.697 Y57.980 E70.57746
G1 X88.303 Y57.980 E74.09957
G1 X88.908 Y58.016 E74.15788
G1 X89.541 Y58.089 E74.21915
G1 X90.522 Y58.268 E74.31518
G1 X91.111 Y58.422 E74.37371
G1 X91.800 Y58.646 E74.44340
G1 X92.557 Y58.960 E74.52226
G1 X93.444 Y59.412 E74.61807
G1 X94.143 Y59.840 E74.69688
G1 X94.814 Y60.327 E74.77670
G1 X95.437 Y60.859 E74.85553
G1 X96.141 Y61.563 E74.95131
G1 X96.673 Y62.186 E75.03011
G1 X97.160 Y62.857 E75.10993
G1 X97.588 Y63.556 E75.18878
G1 X98.040 Y64.443 E75.28459
G1 X98.354 Y65.200 E75.36343
G1 X98.578 Y65.889 E75.43311
G1 X98.732 Y66.478 E75.49166
G1 X98.911 Y67.460 E75.58770
G1 X98.984 Y68.092 E75.64897
G1 X99.020 Y68.697 E75.70728
G1 X99.020 Y81.303 E76.92019
G1 X98.984 Y81.908 E76.97849
G1 X98.911 Y82.540 E77.03976
G1 X98.732 Y83.522 E77.13579
G1 X98.578 Y84.111 E77.19435
G1 X98.354 Y84.800 E77.26404
G1 X98.040 Y85.557 E77.34288
G1 X97.588 Y86.444 E77.43867
G1 X97.161 Y87.142 E77.51748
G1 X96.673 Y87.814 E77.59729
G1 X96.141 Y88.437 E77.67613
G1 X95.437 Y89.141 E77.77194
G1 X94.814 Y89.673 E77.85077
G1 X94.143 Y90.160 E77.93058
G1 X93.444 Y90.588 E78.00940
G1 X92.557 Y91.040 E78.10519
G1 X91.800 Y91.354 E78.18402
G1 X91.111 Y91.578 E78.25371
G1 X90.522 Y91.732 E78.31227
G1 X89.541 Y91.911 E78.40831
G1 X88.908 Y91.984 E78.46958
G1 X88.303 Y92.020 E78.52789
G1 X51.697 Y92.020 E82.05001
G1 X51.092 Y91.984 E82.10832
G1 X50.459 Y91.911 E82.16959
G1 X49.477 Y91.732 E82.26564
G1 X48.888 Y91.578 E82.32426
G1 X48.199 Y91.354 E82.39395
G1 X47.443 Y91.040 E82.47273
G1 X46.556 Y90.588 E82.56851
G1 X45.857 Y90.160 E82.64734
G1 X45.186 Y89.673 E82.72716
G1 X44.563 Y89.141 E82.80597
G1 X43.859 Y88.437 E82.90175
G1 X43.327 Y87.814 E82.98055
G1 X42.840 Y87.143 E83.06036
G1 X42.412 Y86.444 E83.13921
G1 X41.960 Y85.557 E83.23502
G1 X41.646 Y84.800 E83.31386
G1 X41.422 Y84.111 E83.38354
G1 X41.268 Y83.523 E83.44209
G1 X41.089 Y82.541 E83.53813
G1 X41.016 Y81.908 E83.59941
G1 X40.980 Y81.303 E83.65771
G1 X40.980 Y68.697 E84.87062
G1 X41.016 Y68.092 E84.92893
G1 X41.155 Y67.041 E85.03091
G1 X41.268 Y66.478 E85.08622
G1 X41.422 Y65.889 E85.14474
G1 X41.646 Y65.200 E85.21442
G1 X41.959 Y64.443 E85.29330
G1 X42.412 Y63.556 E85.38912
G1 X42.840 Y62.857 E85.46794
G1 X43.327 Y62.186 E85.54776
G1 X43.859 Y61.563 E85.62658
G1 X44.563 Y60.859 E85.72237
G1 X45.140 Y60.366 E85.79540
G1 X45.629 Y60.889 F7800.000
G1 F900
G1 X46.254 Y60.434 E85.86982
G1 X46.905 Y60.035 E85.94325
G1 X47.742 Y59.609 E86.03366
G1 X48.447 Y59.317 E86.10710
G1 X49.090 Y59.108 E86.17208
G1 X49.638 Y58.965 E86.22661
G1 X50.167 Y58.859 E86.27854
G1 X51.154 Y58.727 E86.37434
G1 X51.718 Y58.695 E86.42865
G1 X88.282 Y58.695 E89.94677
G1 X88.846 Y58.727 E90.00108
G1 X89.443 Y58.797 E90.05897
G1 X90.362 Y58.965 E90.14880
G1 X90.910 Y59.108 E90.20332
G1 X91.552 Y59.317 E90.26830
G1 X92.258 Y59.609 E90.34176
G1 X93.095 Y60.035 E90.43217
G1 X93.746 Y60.434 E90.50558
G1 X94.371 Y60.889 E90.58000
G1 X94.952 Y61.384 E90.65343
G1 X95.616 Y62.048 E90.74381
G1 X96.111 Y62.628 E90.81721
G1 X96.566 Y63.254 E90.89163
G1 X96.965 Y63.905 E90.96507
G1 X97.391 Y64.742 E91.05549
G1 X97.683 Y65.447 E91.12892
G1 X97.892 Y66.090 E91.19390
G1 X98.035 Y66.638 E91.24844
G1 X98.203 Y67.557 E91.33828
G1 X98.273 Y68.154 E91.39616
G1 X98.305 Y68.718 E91.45048
G1 X98.305 Y81.282 E92.65939
G1 X98.273 Y81.846 E92.71370
G1 X98.203 Y82.443 E92.77158
G1 X98.035 Y83.362 E92.86141
G1 X97.892 Y83.910 E92.91596
G1 X97.683 Y84.553 E92.98094
G1 X97.391 Y85.258 E93.05438
G1 X96.965 Y86.095 E93.14478
G1 X96.566 Y86.745 E93.21818
G1 X96.112 Y87.371 E93.29260
G1 X95.616 Y87.951 E93.36604
G1 X94.952 Y88.616 E93.45644
G1 X94.371 Y89.111 E93.52987
G1 X93.746 Y89.566 E93.60428
G1 X93.095 Y89.965 E93.67770
G1 X92.258 Y90.391 E93.76809
G1 X91.553 Y90.683 E93.84152
G1 X90.910 Y90.892 E93.90650
G1 X90.362 Y91.035 E93.96105
G1 X89.443 Y91.203 E94.05090
G1 X88.846 Y91.273 E94.10878
G1 X88.282 Y91.305 E94.16309
G1 X51.718 Y91.305 E97.68121
G1 X51.154 Y91.273 E97.73553
G1 X50.557 Y91.203 E97.79341
G1 X49.638 Y91.035 E97.88327
G1 X49.089 Y90.892 E97.93787
G1 X48.447 Y90.683 E98.00285
G1 X47.742 Y90.391 E98.07623
G1 X46.905 Y89.965 E98.16661
G1 X46.254 Y89.566 E98.24005
G1 X45.629 Y89.111 E98.31446
G1 X45.048 Y88.616 E98.38787
G1 X44.384 Y87.952 E98.47825
G1 X43.889 Y87.372 E98.55165
G1 X43.434 Y86.746 E98.62607
G1 X43.035 Y86.095 E98.69951
G1 X42.609 Y85.258 E98.78992
G1 X42.317 Y84.553 E98.86336
G1 X42.108 Y83.910 E98.92834
G1 X41.965 Y83.362 E98.98287
G1 X41.797 Y82.443 E99.07272
G1 X41.727 Y81.846 E99.13061
G1 X41.695 Y81.282 E99.18492
G1 X41.695 Y68.718 E100.39383
G1 X41.727 Y68.154 E100.44815
G1 X41.859 Y67.167 E100.54394
